__todo__/netlify.svg

<svg height="209" preserveAspectRatio="xMidYMid" viewBox="0 0 512 209" width="512" xmlns="http://www.w3.org/2000/svg"><path d="m117.436 207.036v-52.432l1.093-1.094h10.923l1.093 1.094v52.432l-1.093 1.094h-10.923zm0-153.5135v-52.42911l1.093-1.09339h10.923l1.093 1.09339v52.42911l-1.093 1.0934h-10.923zm-47.4821 115.7155h-1.5445l-7.7225-7.726v-1.545l18.0332-18.029 8.1775.004 1.0972 1.089v8.178zm-.0077-130.3463h-1.5445l-7.7225 7.7264v1.5445l18.0332 18.0294 8.1775-.0038 1.0972-1.0896v-8.1774zm-68.85281 58.6187h74.27771l1.0934 1.0934v10.9222l-1.0934 1.094h-74.27771l-1.09339-1.094v-10.9222zm439.90561 0h69.911l1.094 1.0934v10.9222l-1.094 1.094h-74.277l-1.094-1.094 4.366-10.9222z" fill="#05bdba"/><path d="m212.056 108.727-1.093 1.094h-33.884l-1.093 1.093c0 2.187 2.187 8.743 10.93 8.743 3.28 0 6.556-1.093 7.65-3.28l1.093-1.093h13.117l1.093 1.093-.070877.397255c-1.245017 6.549409-6.813063 15.999745-22.882123 15.999745-18.58 0-27.327-13.117-27.327-28.417 0-15.2994 8.743-28.4162 26.233-28.4162 17.491 0 26.234 13.1168 26.234 28.4162zm-17.49-9.8365 1.093-1.0934-.006539-.1755894c-.1012-1.5594655-1.461204-8.5677106-9.830461-8.5677106-8.743 0-9.836 7.6499-9.836 8.7433l1.093 1.0934zm48.094 16.3935c0 2.186 1.093 3.28 3.28 3.28h9.836l1.094 1.093v10.93l-1.094 1.094h-9.836c-9.837 0-18.58-4.374-18.58-16.397v-24.0472l-1.094-1.0934h-7.649l-1.094-1.0934v-10.9301l1.094-1.0934h7.649l1.094-1.0933v-9.8367l1.093-1.0934h13.117l1.093 1.0934v9.8367l1.094 1.0933h12.023l1.094 1.0934v10.9301l-1.094 1.0934h-12.023l-1.094 1.0934v24.0472zm40.44 16.397h-13.117l-1.094-1.094v-74.3234l1.094-1.0934h13.117l1.093 1.0934v74.3234zm29.51-63.3939h-13.117l-1.094-1.0934v-10.9301l1.094-1.0934h13.117l1.093 1.0934v10.9301zm0 63.3939h-13.117l-1.094-1.094v-52.4633l1.094-1.0933h13.117l1.093 1.0933v52.4633zm51.37-75.4174v10.9301l-1.094 1.0934h-9.836c-2.187 0-3.281 1.0934-3.281 3.2801v4.3736l1.094 1.0934h10.93l1.093 1.0934v10.93l-1.093 1.0934h-10.93l-1.094 1.0934v39.3466l-1.093 1.093h-13.117l-1.093-1.093v-39.3466l-1.094-1.0934h-7.649l-1.094-1.0934v-10.93l1.094-1.0934h7.649l1.094-1.0934v-4.3736c0-11.8941161 8.555989-16.3020596 18.263066-16.3954789l10.152934-.0015211 1.094 1.0934zm40.444 76.5064-.418709 1.026322c-4.246133 10.315265-8.811575 16.464678-23.632291 16.464678h-5.467l-1.093-1.094v-10.93l1.093-1.093h5.467l.634864-.005321c4.915578-.085697 5.964896-1.219879 7.015136-4.368679v-1.093l-17.487-42.627v-10.9301l1.094-1.0934h9.836l1.094 1.0934 13.117 37.1641h1.093l13.117-37.1641 1.093-1.0934h9.837l1.093 1.0934v10.9301zm-268.97-1.089-1.093-1.094.007-31.6698c0-5.4631-2.148-9.699-8.743-9.8366-3.391-.088-7.271-.0077-11.416.1682l-.619.6346.008 40.7036-1.094 1.094h-13.1127l-1.0934-1.094v-53.0482l1.0934-1.0934 29.5097-.2676c14.784 0 20.767 10.1578 20.767 21.6231v32.7861l-1.093 1.094z" fill="#014847"/></svg>

<?xml version="1.0" encoding="UTF-8"?>
<svg width="512px" height="209px" viewBox="0 0 512 209" version="1.1" xmlns="http://www.w3.org/2000/svg" xmlns:xlink="http://www.w3.org/1999/xlink" preserveAspectRatio="xMidYMid">
    <title>netlify</title>
    <g>
        <path d="M117.436,207.036 L117.436,154.604 L118.529,153.51 L129.452,153.51 L130.545,154.604 L130.545,207.036 L129.452,208.13 L118.529,208.13 L117.436,207.036 Z M117.436,53.5225 L117.436,1.09339 L118.529,0 L129.452,0 L130.545,1.09339 L130.545,53.5225 L129.452,54.6159 L118.529,54.6159 L117.436,53.5225 Z M69.9539,169.238 L68.4094,169.238 L60.6869,161.512 L60.6869,159.967 L78.7201,141.938 L86.8976,141.942 L87.9948,143.031 L87.9948,151.209 L69.9539,169.238 Z M69.9462,38.8917 L68.4017,38.8917 L60.6792,46.6181 L60.6792,48.1626 L78.7124,66.192 L86.8899,66.1882 L87.9871,65.0986 L87.9871,56.9212 L69.9462,38.8917 Z M1.09339,97.5104 L75.3711,97.5104 L76.4645,98.6038 L76.4645,109.526 L75.3711,110.62 L1.09339,110.62 L0,109.526 L0,98.6038 L1.09339,97.5104 Z M440.999,97.5104 L510.91,97.5104 L512.004,98.6038 L512.004,109.526 L510.91,110.62 L436.633,110.62 L435.539,109.526 L439.905,98.6038 L440.999,97.5104 Z" fill="#05BDBA"></path>
        <path d="M212.056,108.727 L210.963,109.821 L177.079,109.821 L175.986,110.914 C175.986,113.101 178.173,119.657 186.916,119.657 C190.196,119.657 193.472,118.564 194.566,116.377 L195.659,115.284 L208.776,115.284 L209.869,116.377 L209.798123,116.774255 C208.553106,123.323664 202.98506,132.774 186.916,132.774 C168.336,132.774 159.589,119.657 159.589,104.357 C159.589,89.0576 168.332,75.9408 185.822,75.9408 C203.313,75.9408 212.056,89.0576 212.056,104.357 L212.056,108.727 Z M194.566,98.8905 L195.659,97.7971 L195.652461,97.6215106 C195.551261,96.0620451 194.191257,89.0538 185.822,89.0538 C177.079,89.0538 175.986,96.7037 175.986,97.7971 L177.079,98.8905 L194.566,98.8905 Z M242.66,115.284 C242.66,117.47 243.753,118.564 245.94,118.564 L255.776,118.564 L256.87,119.657 L256.87,130.587 L255.776,131.681 L245.94,131.681 C236.103,131.681 227.36,127.307 227.36,115.284 L227.36,91.2368 L226.266,90.1434 L218.617,90.1434 L217.523,89.05 L217.523,78.1199 L218.617,77.0265 L226.266,77.0265 L227.36,75.9332 L227.36,66.0965 L228.453,65.0031 L241.57,65.0031 L242.663,66.0965 L242.663,75.9332 L243.757,77.0265 L255.78,77.0265 L256.874,78.1199 L256.874,89.05 L255.78,90.1434 L243.757,90.1434 L242.663,91.2368 L242.663,115.284 L242.66,115.284 Z M283.1,131.681 L269.983,131.681 L268.889,130.587 L268.889,56.2636 L269.983,55.1702 L283.1,55.1702 L284.193,56.2636 L284.193,130.587 L283.1,131.681 Z M312.61,68.2871 L299.493,68.2871 L298.399,67.1937 L298.399,56.2636 L299.493,55.1702 L312.61,55.1702 L313.703,56.2636 L313.703,67.1937 L312.61,68.2871 Z M312.61,131.681 L299.493,131.681 L298.399,130.587 L298.399,78.1237 L299.493,77.0304 L312.61,77.0304 L313.703,78.1237 L313.703,130.587 L312.61,131.681 Z M363.98,56.2636 L363.98,67.1937 L362.886,68.2871 L353.05,68.2871 C350.863,68.2871 349.769,69.3805 349.769,71.5672 L349.769,75.9408 L350.863,77.0342 L361.793,77.0342 L362.886,78.1276 L362.886,89.0576 L361.793,90.151 L350.863,90.151 L349.769,91.2444 L349.769,130.591 L348.676,131.684 L335.559,131.684 L334.466,130.591 L334.466,91.2444 L333.372,90.151 L325.723,90.151 L324.629,89.0576 L324.629,78.1276 L325.723,77.0342 L333.372,77.0342 L334.466,75.9408 L334.466,71.5672 C334.466,59.6730839 343.021989,55.2651404 352.729066,55.1717211 L362.882,55.1702 L363.976,56.2636 L363.98,56.2636 Z M404.424,132.77 L404.005291,133.796322 C399.759158,144.111587 395.193716,150.261 380.373,150.261 L374.906,150.261 L373.813,149.167 L373.813,138.237 L374.906,137.144 L380.373,137.144 L381.007864,137.138679 C385.923442,137.052982 386.97276,135.9188 388.023,132.77 L388.023,131.677 L370.536,89.05 L370.536,78.1199 L371.63,77.0265 L381.466,77.0265 L382.56,78.1199 L395.677,115.284 L396.77,115.284 L409.887,78.1199 L410.98,77.0265 L420.817,77.0265 L421.91,78.1199 L421.91,89.05 L404.424,132.77 Z M135.454,131.681 L134.361,130.587 L134.368,98.9172 C134.368,93.4541 132.22,89.2182 125.625,89.0806 C122.234,88.9926 118.354,89.0729 114.209,89.2488 L113.59,89.8834 L113.598,130.587 L112.504,131.681 L99.3913,131.681 L98.2979,130.587 L98.2979,77.5388 L99.3913,76.4454 L128.901,76.1778 C143.685,76.1778 149.668,86.3356 149.668,97.8009 L149.668,130.587 L148.575,131.681 L135.454,131.681 Z" fill="#014847"></path>
    </g>
</svg>
